Modules/BetterCms.Module.Root/Scss/base_64/icons/cp-user.svg

<svg xmlns="http://www.w3.org/2000/svg" width="11" height="14" viewBox="0 0 11 14">
 <path fill="#fff" fill-rule="evenodd" d="m9.286 14h-7.572c-.946 0-1.714-.768-1.714-1.714 0-2.367 1.919-4.286 4.286-4.286h2.428c2.367 0 4.286 1.919 4.286 4.286 0 .946-.768 1.714-1.714 1.714m-3.786-7c-1.933 0-3.5-1.567-3.5-3.5 0-1.933 1.567-3.5 3.5-3.5 1.933 0 3.5 1.567 3.5 3.5 0 1.933-1.567 3.5-3.5 3.5"/>
</svg>

<svg xmlns="http://www.w3.org/2000/svg" preserveAspectRatio="xMidYMid" width="11" height="14" viewBox="0 0 11 14">
  <path fill="#ffffff" fill-rule="evenodd" d="M9.286,14.000 L1.714,14.000 C0.768,14.000 -0.000,13.232 -0.000,12.286 C-0.000,9.919 1.919,8.000 4.286,8.000 L6.714,8.000 C9.081,8.000 11.000,9.919 11.000,12.286 C11.000,13.232 10.232,14.000 9.286,14.000 ZM5.500,7.000 C3.567,7.000 2.000,5.433 2.000,3.500 C2.000,1.567 3.567,-0.000 5.500,-0.000 C7.433,-0.000 9.000,1.567 9.000,3.500 C9.000,5.433 7.433,7.000 5.500,7.000 Z"/>
</svg>
